!! 00000] TT[00
!! NN
!!!OTL: Hui gege
!!!ARE: Asia, China, Shanxi, Zuoquan
!! Ethnic Group: Han
!! I, 331, 2)
!!!SCT: C0096
!!!YEM: Copyright 1995, estate of Helmut Schaffrath.
**kern
*ICvox
*Ivox
*M3/8
*k[f#]
*G:
{8dd
8dd
8ee
=1
8dd
8cc
8b
=2
8dd
8a
8dd
=3
8f#
8e
8d}
=4
{4g
8dd
=5
8g
8f#
8e
=6
8g
8d
8e
=7
4.d}
=8
{4g
8dd
=9
8g
8f#
8e
=10
8g
8d
8e
=11
4.d}
==
!!!AGN: Xiaodiao, Kaihua diao. Biaoda aiqing
!! 
!!!ONB: ESAC (Essen Associative Code) Database: CHINA
!!!AMT: simple triple
!!!AIN: vox
!!!EED: Helmut Schaffrath
!!!EEV: 1.0
*-
